X: 1
T: Harry Potter Theme
Z: Devire
M: 6/8
L: 1/8
Q:1/8=90
K:G
z4zB|e3/2g/2f e2b|a3 f3|e3/2g/2f d2=f|
B4-BB|e3/2g/2^f e2b|c'^b =b^g|b/2b/2^a f2=g|
e4-eg|b2g b2g|c'b ^a2f|g3/2b/2^a ^A2B|
b4-bg|b2g b2g|c'^b =b^g|b/2b/2^a f2=g|
e4-e